X:98
T: RINGEL RINGEL ROSEN
N: K2079
O: Europa, Mitteleuropa, Deutschland, Kassel
R: Kinder - Lied, Reigen, Tanz - Spiel; +++ letzte Phrase korrigiert. ++++
M: 2/4
L: 1/8
K: C
 | GGAA | G2E2 |
GGAA | G2E2 |
GFEC | GFE2 |
GGAA | GFEc |
c2c2 | c4

@@@ Tune index: 7435
